.local/share/icons/Gruvbox-Plus-Dark/apps/scalable/chrome-aohghmighlieiainnegkcijnfilokake-White.svg

<svg width="256" height="256" style="isolation:isolate" version="1.1" xmlns="http://www.w3.org/2000/svg">
  <g filter="url(#a)">
    <linearGradient id="b" x1=".50002" x2=".50002" y1="-.00051239" y2="1" gradientTransform="matrix(244.65,0,0,228.34,5.676,11.947)" gradientUnits="userSpaceOnUse">
      <stop stop-color="#ebdbb2" offset="0"/>
      <stop stop-color="#ebdbb2" offset="1"/>
    </linearGradient>
    <path d="m165.68 11.947c72.707 0 84.639 12.053 84.639 84.544v59.251c0 72.561-11.932 84.543-84.639 84.543h-75.37c-72.294 0-84.639-11.982-84.639-84.543v-59.251c0-72.491 12.329-84.544 84.639-84.544z" fill="url(#b)"/>
  </g>
  <g opacity=".4">
    <linearGradient id="c" x1=".517" x2=".517" y2="1" gradientTransform="matrix(244.65,0,0,228.34,5.68,11.95)" gradientUnits="userSpaceOnUse">
      <stop stop-color="#d5c4a1" offset="0"/>
      <stop stop-color="#ebdbb2" stop-opacity=".098" offset=".125"/>
      <stop stop-color="#282828" stop-opacity=".098039" offset=".925"/>
      <stop stop-color="#282828" stop-opacity=".49804" offset="1"/>
    </linearGradient>
    <path d="m165.07 11.951c4.328-0.01 8.656 0.04 12.984 0.138 3.875 0.078 7.7436 0.25854 11.62 0.48454 3.453 0.196 6.8876 0.5327 10.33 0.9057 3.06 0.335 6.0892 0.83409 9.1192 1.3941 2.7131 0.50032 5.3525 1.181 7.9999 1.9571 2.3983 0.69679 4.7544 1.61 7.0323 2.6338 2.1121 0.94124 4.0427 2.0439 5.9631 3.3319 1.8405 1.2399 3.5996 2.7014 5.1741 4.2652 1.5652 1.5692 2.886 3.1628 4.1277 4.9987 1.2864 1.9174 2.4086 3.8707 3.3603 5.9744 1.0207 2.2746 1.9193 4.5772 2.628 6.9675 0.77696 2.6443 1.4779 5.3272 1.9787 8.0374 0.56201 3.0246 1.0626 6.0601 1.3989 9.1181 0.374 3.439 0.70873 6.8493 0.90573 10.297 0.226 3.861 0.42171 7.7394 0.51071 11.6 0.088 4.323 0.138 8.646 0.128 12.96v58.21c0.01 4.324-0.04 8.637-0.128 12.96-0.085 3.8668-0.28821 7.7331-0.51114 11.595-0.19655 3.4488-0.53822 6.9467-0.91224 10.38-0.33634 3.0613-0.82936 6.0316-1.3914 9.0596-0.50199 2.7066-1.1867 5.3458-1.9626 7.987-0.7071 2.3908-1.5665 4.6263-2.5888 6.9002-0.94995 2.1048-2.1624 4.2292-3.4512 6.1454-1.2392 1.8377-2.5377 3.3902-4.1052 4.9572-1.5746 1.5638-3.412 3.0712-5.2525 4.3111-1.9201 1.2879-3.8611 2.3701-5.9729 3.3114-2.3498 1.0736-4.5744 1.8717-6.9323 2.584-2.6776 0.81656-5.2934 1.4166-7.976 1.948-3.0309 0.56603-6.051 1.0612-9.1165 1.3921-3.5041 0.40869-6.8203 0.68433-10.336 0.90377-3.875 0.226-7.789 0.40013-11.665 0.48813-4.328 0.088-8.6314 0.15082-12.959 0.14082h-74.126c-4.328 0.01-8.6566-0.0545-12.985-0.14247-3.9049-0.0955-7.7449-0.24667-11.628-0.49085-3.4941-0.21923-7.0445-0.5149-10.452-0.92805-3.1873-0.37665-5.9337-0.7937-8.9951-1.3902-2.833-0.56139-5.3421-1.1637-7.9464-1.9566-2.4295-0.73175-4.8105-1.6266-7.0523-2.6548-2.139-0.97893-4.0617-2.0635-5.9983-3.3731-1.8405-1.2399-3.5141-2.6495-5.0886-4.2133-1.5676-1.5671-2.9061-3.1787-4.1454-5.0164-1.2884-1.9162-2.4021-3.8332-3.3518-5.9379-1.0223-2.2739-1.9238-4.5236-2.6309-6.9144-0.77585-2.6412-1.4977-5.3053-1.9996-8.0119-0.56202-3.028-1.0938-6.1087-1.4301-9.17-0.37402-3.4341-0.72617-6.8459-0.92272-10.295-0.22292-3.8613-0.42179-7.7427-0.50684-11.61-0.09185-4.3194-0.13452-8.6396-0.128-12.96v-58.21c-0.01-4.314 0.04-8.637 0.128-12.96 0.089-3.86 0.28015-7.7353 0.50615-11.596 0.197-3.448 0.54883-6.857 0.92283-10.296 0.335-3.055 0.87336-6.1638 1.4344-9.1898 0.50085-2.7102 1.1807-5.2262 1.9577-7.8705 0.70872-2.3902 1.7549-4.9868 2.7756-7.2614 0.95209-2.1037 1.9632-3.7998 3.2499-5.7172 1.2418-1.8358 2.594-3.4604 4.1593-5.0296 1.5745-1.5638 3.3273-3.0214 5.1678-4.2614 1.9201-1.2879 3.8238-2.3848 5.9356-3.3261 2.278-1.0238 4.5428-1.9236 6.9411-2.6204 2.6474-0.77617 5.2743-1.4761 7.9874-1.9764 3.0317-0.56124 6.1381-1.085 9.203-1.4208 3.443-0.373 6.8398-0.71288 10.293-0.90888 3.875-0.226 7.7331-0.41514 11.609-0.49314 4.328-0.098 8.6625-0.14613 12.991-0.13613zm0.01 4.009c4.298-0.01 8.597 0.039 12.895 0.127 3.827 0.089 7.6466 0.26854 11.474 0.48454 3.383 0.197 6.7724 0.43946 10.136 0.81246 2.971 0.315 5.9391 0.74869 8.8701 1.2987 2.5807 0.47339 5.1059 1.0723 7.6238 1.8101 2.2193 0.6492 4.4135 1.4563 6.5231 2.4032 1.9054 0.85272 3.7179 1.8543 5.4527 3.0153 1.6245 1.0927 3.1568 2.3505 4.5413 3.7347 1.3858 1.385 2.6374 2.8981 3.738 4.519 1.1601 1.7266 2.1737 3.5473 3.03 5.443 0.94487 2.1083 1.7467 4.2779 2.4 6.494 0.74152 2.5113 1.352 5.0594 1.829 7.634 0.54 2.928 0.974 5.875 1.298 8.842 0.374 3.36 0.65 6.73 0.846 10.11 0.217 3.822 0.374 7.634 0.453 11.456 0.088 4.293 0.137 8.577 0.137 12.87v58.212c0 4.293-0.049 8.577-0.137 12.87-0.082 3.8211-0.0546 7.643-0.27458 11.459-0.196 3.38-0.65042 6.7474-1.0244 10.117-0.3245 2.9589-0.75746 5.9049-1.298 8.832-0.47731 2.5747-1.0881 5.1228-1.83 7.634-0.65169 2.2166-1.4536 4.3863-2.4 6.494-0.8542 1.8968-1.8678 3.7176-3.03 5.443-1.0976 1.6263-2.349 3.1432-3.737 4.53-1.3876 1.3779-2.9027 2.6211-4.525 3.713-1.7345 1.161-3.564 2.1732-5.469 3.026-2.1078 0.95119-4.2802 1.7522-6.501 2.397-2.5179 0.7378-5.0723 1.3446-7.653 1.818-2.931 0.55-5.8828 0.98162-8.8538 1.3056-3.364 0.364-6.7562 0.64938-10.139 0.83638-3.827 0.216-7.6776 0.36018-11.505 0.43918-4.298 0.098-8.5724 0.14982-12.87 0.14982h-74.146c-4.298 0-8.5976-0.0545-12.896-0.15147-3.8291-0.082-7.6582-0.26152-11.482-0.48085-3.3834-0.19001-6.7587-0.42545-10.127-0.79268-2.97-0.32174-5.9265-0.7574-8.863-1.306-2.5807-0.47339-5.1351-1.0802-7.653-1.818-2.2208-0.64482-4.3673-1.4321-6.4751-2.3833-1.9053-0.85272-3.7547-1.8723-5.4895-3.0333-1.622-1.0922-3.1431-2.3423-4.5303-3.7205-1.3882-1.3864-2.64-2.903-3.738-4.529-1.1622-1.7254-2.1758-3.5462-3.03-5.443-0.94645-2.1077-1.7483-4.2774-2.4-6.494-0.74152-2.5113-1.352-5.0594-1.829-7.634-0.54054-2.9271-0.9735-5.8731-1.298-8.832-0.374-3.37-0.65-6.74-0.846-10.12-0.21993-3.8156-0.37096-7.6349-0.453-11.456-0.08992-4.2894-0.13559-8.5796-0.137-12.87v-58.212c0-4.293 0.049-8.577 0.137-12.87 0.079-3.822 0.236-7.634 0.453-11.456 0.197-3.38 0.472-6.75 0.846-10.11 0.324-2.967 0.757-5.914 1.298-8.842 0.47732-2.5747 1.0915-5.1375 1.8334-7.6487 0.65331-2.2161 1.4517-4.371 2.3966-6.4793 0.85634-1.8957 1.8699-3.7164 3.03-5.443 1.1003-1.6212 2.3515-3.1346 3.737-4.52 1.3849-1.3839 2.9002-2.6307 4.525-3.723 1.7345-1.161 3.564-2.1732 5.469-3.026 2.1096-0.94691 4.2817-1.7478 6.501-2.397 2.5179-0.7378 5.0723-1.3446 7.653-1.818 2.931-0.55 5.892-0.982 8.863-1.297 3.364-0.373 6.7432-0.64645 10.126-0.84345 3.8239-0.21443 7.6549-0.36667 11.484-0.45355 4.298-0.088 8.597-0.137 12.895-0.127z" fill="url(#c)" fill-rule="evenodd"/>
  </g>
  <path d="m67.774 41.974c-4.766 0-8.6016 3.8375-8.6016 8.6035v154.85c0 4.766 3.8356 8.6035 8.6016 8.6035h120.44c4.766 0 8.6016-3.8375 8.6016-8.6035v-111.84l-47.316-4.3027-4.3008-47.316zm22.369 75.707h75.705v10.322h-75.705zm0 20.646h75.705v10.324h-75.705zm0 20.646h75.705v10.324h-75.705zm0 20.648h55.059v10.324h-55.059z" fill="#458588" style="isolation:isolate"/>
  <g transform="translate(-.0034005 3.6049)" opacity=".2" style="isolation:isolate">
    <g opacity=".2">
      <path d="m67.784 38.37c-4.766 0-8.603 3.837-8.603 8.603v3.441c0-4.766 3.837-8.603 8.603-8.603h77.427l4.301 47.316 47.317 0.861-47.317-4.302-4.301-47.316z" fill="#ebdbb2"/>
    </g>
  </g>
  <path d="m145.21 41.975v43.015c0 4.751 3.852 8.603 8.603 8.603h43.015z" fill="#83a598" style="isolation:isolate"/>
</svg>

<?xml version="1.0" standalone="no"?><!-- Generator: Gravit.io --><svg xmlns="http://www.w3.org/2000/svg" xmlns:xlink="http://www.w3.org/1999/xlink" style="isolation:isolate" viewBox="0 0 256 256" width="256" height="256"><g filter="url(#fxokRhNtiOuvB8JaqKTKeHMaRFJlFT2T)"><linearGradient id="_lgradient_2" x1="0.233" y1="-0.071" x2="0.933" y2="0.7960661603610082" gradientTransform="matrix(244.648,0,0,228.338,5.676,11.947)" gradientUnits="userSpaceOnUse"><stop offset="0%" stop-opacity="1" style="stop-color:#ebdbb2"/><stop offset="100%" stop-opacity="1" style="stop-color:#ebdbb2"/></linearGradient><path d=" M 165.685 11.947 C 239.74 11.947 250.324 22.504 250.324 96.491 L 250.324 155.742 C 250.324 229.728 239.74 240.285 165.685 240.285 L 90.315 240.285 C 16.26 240.285 5.676 229.728 5.676 155.742 L 5.676 96.491 C 5.676 22.504 16.26 11.947 90.315 11.947 L 165.685 11.947 L 165.685 11.947 Z " fill="url(#_lgradient_2)"/></g><defs><filter id="fxokRhNtiOuvB8JaqKTKeHMaRFJlFT2T" x="-200%" y="-200%" width="400%" height="400%" filterUnits="objectBoundingBox" color-interpolation-filters="sRGB"><feGaussianBlur xmlns="http://www.w3.org/2000/svg" in="SourceGraphic" stdDeviation="4.294"/><feOffset xmlns="http://www.w3.org/2000/svg" dx="0" dy="4" result="pf_100_offsetBlur"/><feFlood xmlns="http://www.w3.org/2000/svg" flood-color="#282828" flood-opacity="0.4"/><feComposite xmlns="http://www.w3.org/2000/svg" in2="pf_100_offsetBlur" operator="in" result="pf_100_dropShadow"/><feBlend xmlns="http://www.w3.org/2000/svg" in="SourceGraphic" in2="pf_100_dropShadow" mode="normal"/></filter></defs><g style="opacity:0.4;"><g style="opacity:0.4;"><g opacity="0.4"><linearGradient id="_lgradient_3" x1="0.5169998854248579" y1="0.0000011253516996531654" x2="0.5169998854248576" y2="1.2087556553904961" gradientTransform="matrix(244.651,0,0,228.341,5.68,11.95)" gradientUnits="userSpaceOnUse"><stop offset="0%" stop-opacity="1" style="stop-color:#ebdbb2"/><stop offset="12.5%" stop-opacity="0.098" style="stop-color:#ebdbb2"/><stop offset="92.5%" stop-opacity="0.098" style="stop-color:#282828"/><stop offset="100%" stop-opacity="0.498" style="stop-color:#282828"/></linearGradient><path d=" M 165.068 11.951 C 169.396 11.941 173.724 11.991 178.052 12.089 C 181.927 12.167 185.803 12.315 189.678 12.541 C 193.131 12.737 196.583 13.022 200.026 13.395 C 203.085 13.73 206.144 14.181 209.174 14.741 C 211.889 15.243 214.574 15.881 217.22 16.657 C 219.62 17.355 221.971 18.219 224.243 19.241 C 226.358 20.184 228.384 21.304 230.302 22.591 C 232.142 23.829 233.863 25.244 235.437 26.806 C 237.001 28.378 238.417 30.088 239.656 31.925 C 240.945 33.841 242.066 35.865 243.02 37.967 C 244.043 40.247 244.909 42.585 245.617 44.972 C 246.394 47.615 247.034 50.297 247.535 53.009 C 248.096 56.035 248.548 59.081 248.883 62.136 C 249.257 65.575 249.542 69.014 249.739 72.462 C 249.965 76.323 250.112 80.194 250.201 84.055 C 250.289 88.378 250.339 92.701 250.329 97.014 L 250.329 155.226 C 250.339 159.549 250.289 163.862 250.201 168.185 C 250.112 172.056 249.965 175.917 249.739 179.778 C 249.542 183.226 249.257 186.675 248.883 190.104 C 248.548 193.159 248.096 196.215 247.535 199.241 C 247.034 201.943 246.394 204.625 245.617 207.268 C 244.909 209.655 244.043 212.003 243.02 214.273 C 242.066 216.385 240.945 218.399 239.656 220.315 C 238.417 222.152 237.001 223.872 235.437 225.434 C 233.863 226.996 232.142 228.411 230.302 229.649 C 228.384 230.936 226.358 232.056 224.243 232.999 C 221.971 234.021 219.62 234.885 217.22 235.593 C 214.574 236.369 211.889 237.007 209.174 237.499 C 206.144 238.068 203.085 238.51 200.026 238.845 C 196.583 239.218 193.131 239.503 189.678 239.699 C 185.803 239.925 181.927 240.073 178.052 240.161 C 173.724 240.249 169.396 240.299 165.068 240.289 L 90.942 240.289 C 86.614 240.299 82.286 240.249 77.958 240.161 C 74.083 240.073 70.207 239.925 66.332 239.699 C 62.879 239.503 59.427 239.218 55.984 238.845 C 52.925 238.51 49.866 238.068 46.836 237.499 C 44.121 237.007 41.436 236.369 38.79 235.593 C 36.39 234.885 34.039 234.021 31.767 232.999 C 29.652 232.056 27.626 230.936 25.708 229.649 C 23.868 228.411 22.147 226.996 20.573 225.434 C 19.009 223.872 17.593 222.152 16.354 220.315 C 15.065 218.399 13.944 216.385 12.99 214.273 C 11.967 212.003 11.101 209.655 10.393 207.268 C 9.616 204.625 8.976 201.943 8.475 199.241 C 7.914 196.215 7.462 193.159 7.127 190.104 C 6.753 186.675 6.468 183.226 6.271 179.778 C 6.045 175.917 5.898 172.056 5.809 168.185 C 5.721 163.862 5.671 159.549 5.681 155.226 L 5.681 97.014 C 5.671 92.701 5.721 88.378 5.809 84.055 C 5.898 80.194 6.045 76.323 6.271 72.462 C 6.468 69.014 6.753 65.575 7.127 62.136 C 7.462 59.081 7.914 56.035 8.475 53.009 C 8.976 50.297 9.616 47.615 10.393 44.972 C 11.101 42.585 11.967 40.247 12.99 37.967 C 13.944 35.865 15.065 33.841 16.354 31.925 C 17.593 30.088 19.009 28.378 20.573 26.806 C 22.147 25.244 23.868 23.829 25.708 22.591 C 27.626 21.304 29.652 20.184 31.767 19.241 C 34.039 18.219 36.39 17.355 38.79 16.657 C 41.436 15.881 44.121 15.243 46.836 14.741 C 49.866 14.181 52.925 13.73 55.984 13.395 C 59.427 13.022 62.879 12.737 66.332 12.541 C 70.207 12.315 74.083 12.167 77.958 12.089 C 82.286 11.991 86.614 11.941 90.942 11.951 L 165.068 11.951 L 165.068 11.951 Z  M 165.078 15.96 C 169.376 15.95 173.675 15.999 177.973 16.087 C 181.8 16.176 185.626 16.323 189.452 16.539 C 192.836 16.736 196.22 17.011 199.584 17.384 C 202.554 17.699 205.515 18.131 208.446 18.681 C 211.023 19.153 213.581 19.762 216.099 20.499 C 218.322 21.147 220.496 21.953 222.6 22.896 C 224.509 23.751 226.338 24.763 228.069 25.922 C 229.692 27.013 231.207 28.26 232.594 29.646 C 233.981 31.031 235.23 32.544 236.332 34.165 C 237.493 35.894 238.506 37.712 239.361 39.608 C 240.306 41.72 241.112 43.892 241.762 46.102 C 242.509 48.617 243.109 51.162 243.591 53.736 C 244.132 56.664 244.565 59.611 244.889 62.578 C 245.263 65.938 245.539 69.308 245.735 72.688 C 245.952 76.51 246.109 80.322 246.188 84.144 C 246.276 88.437 246.326 92.721 246.326 97.014 C 246.326 97.014 246.326 97.014 246.326 97.014 L 246.326 155.226 C 246.326 155.226 246.326 155.226 246.326 155.226 C 246.326 159.519 246.276 163.803 246.188 168.096 C 246.109 171.918 245.952 175.74 245.735 179.552 C 245.539 182.932 245.263 186.302 244.889 189.672 C 244.565 192.629 244.132 195.576 243.591 198.504 C 243.109 201.078 242.509 203.623 241.762 206.138 C 241.112 208.358 240.306 210.52 239.361 212.632 C 238.506 214.528 237.493 216.356 236.332 218.075 C 235.23 219.706 233.981 221.219 232.594 222.604 C 231.207 223.98 229.692 225.227 228.069 226.318 C 226.338 227.477 224.509 228.489 222.6 229.344 C 220.496 230.297 218.322 231.093 216.099 231.741 C 213.581 232.478 211.023 233.087 208.446 233.559 C 205.515 234.109 202.554 234.541 199.584 234.865 C 196.22 235.229 192.836 235.514 189.452 235.701 C 185.626 235.917 181.8 236.074 177.973 236.153 C 173.675 236.251 169.376 236.29 165.078 236.29 C 165.078 236.29 165.078 236.29 165.068 236.29 L 90.942 236.29 C 90.932 236.29 90.932 236.29 90.932 236.29 C 86.634 236.29 82.335 236.251 78.037 236.153 C 74.211 236.074 70.384 235.917 66.558 235.701 C 63.174 235.514 59.791 235.229 56.427 234.865 C 53.456 234.541 50.495 234.109 47.564 233.559 C 44.987 233.087 42.43 232.478 39.911 231.741 C 37.688 231.093 35.515 230.297 33.41 229.344 C 31.501 228.489 29.672 227.477 27.941 226.318 C 26.318 225.227 24.803 223.98 23.416 222.604 C 22.029 221.219 20.78 219.706 19.678 218.075 C 18.518 216.356 17.504 214.528 16.649 212.632 C 15.704 210.52 14.898 208.358 14.249 206.138 C 13.501 203.623 12.901 201.078 12.419 198.504 C 11.878 195.576 11.445 192.629 11.121 189.672 C 10.747 186.302 10.472 182.932 10.275 179.552 C 10.058 175.74 9.901 171.918 9.822 168.096 C 9.734 163.803 9.685 159.519 9.685 155.226 C 9.685 155.226 9.685 155.226 9.685 155.226 L 9.685 97.014 C 9.685 97.014 9.685 97.014 9.685 97.014 C 9.685 92.721 9.734 88.437 9.822 84.144 C 9.901 80.322 10.058 76.51 10.275 72.688 C 10.472 69.308 10.747 65.938 11.121 62.578 C 11.445 59.611 11.878 56.664 12.419 53.736 C 12.901 51.162 13.501 48.617 14.249 46.102 C 14.898 43.892 15.704 41.72 16.649 39.608 C 17.504 37.712 18.518 35.894 19.678 34.165 C 20.78 32.544 22.029 31.031 23.416 29.646 C 24.803 28.26 26.318 27.013 27.941 25.922 C 29.672 24.763 31.501 23.751 33.41 22.896 C 35.515 21.953 37.688 21.147 39.911 20.499 C 42.43 19.762 44.987 19.153 47.564 18.681 C 50.495 18.131 53.456 17.699 56.427 17.384 C 59.791 17.011 63.174 16.736 66.558 16.539 C 70.384 16.323 74.21 16.176 78.037 16.087 C 82.335 15.999 86.634 15.95 90.932 15.96 C 90.932 15.96 90.932 15.96 90.942 15.96 L 165.068 15.96 C 165.078 15.96 165.078 15.96 165.078 15.96 L 165.078 15.96 L 165.078 15.96 Z " fill-rule="evenodd" fill="url(#_lgradient_3)"/></g></g></g><g><g style="opacity:0.2;"><g opacity="0.2"><path d=" M 67.784 41.811 C 63.018 41.811 59.181 45.648 59.181 50.414 L 59.181 205.267 C 59.181 210.033 63.018 213.87 67.784 213.87 L 188.226 213.87 C 192.992 213.87 196.829 210.033 196.829 205.267 L 196.829 93.429 L 149.512 89.127 L 145.211 41.811 L 67.784 41.811 L 67.784 41.811 Z " fill="#282828"/></g></g><path d=" M 67.784 38.37 C 63.018 38.37 59.181 42.207 59.181 46.973 L 59.181 201.826 C 59.181 206.592 63.018 210.429 67.784 210.429 L 188.226 210.429 C 192.992 210.429 196.829 206.592 196.829 201.826 L 196.829 89.988 L 149.512 85.686 L 145.211 38.37 L 67.784 38.37 L 67.784 38.37 Z " fill="#528ff5"/><g style="opacity:0.2;"><g opacity="0.2"><path d=" M 67.784 38.37 C 63.018 38.37 59.181 42.207 59.181 46.973 L 59.181 50.414 C 59.181 45.648 63.018 41.811 67.784 41.811 L 145.211 41.811 L 149.512 89.127 L 196.829 89.988 L 196.829 89.988 L 149.512 85.686 L 145.211 38.37 L 67.784 38.37 L 67.784 38.37 Z " fill="#ebdbb2"/></g></g><path d=" M 145.211 38.37 L 145.211 81.385 C 145.211 86.136 149.063 89.988 153.814 89.988 L 196.829 89.988 L 145.211 38.37 L 145.211 38.37 Z " fill="#a5c5f9"/><path d=" M 90.152 114.076 L 90.152 124.399 L 165.858 124.399 L 165.858 114.076 L 90.152 114.076 L 90.152 114.076 Z  M 90.152 134.723 L 90.152 145.046 L 165.858 145.046 L 165.858 134.723 L 90.152 134.723 L 90.152 134.723 Z  M 90.152 155.37 L 90.152 165.694 L 165.858 165.694 L 165.858 155.37 L 90.152 155.37 L 90.152 155.37 Z  M 90.152 176.017 L 90.152 186.341 L 145.211 186.341 L 145.211 176.017 L 90.152 176.017 L 90.152 176.017 Z " fill="#ebdbb2"/></g></svg>
